X:13
T:Castle Kelly
C:Traditional
R:reel
K:Am
M:4/4
L:1/8
|: A2 cA ABcA| GcEG G2 EG| A2 cA ABcd| ecdB cA A2:|
! agec dfed| cAGE G2 eg| agec d2cd| eaag a2ba| ! gedc dfed|
cAGE| G2 EG| A2 cA ABcd| ecdB cA A2|
%%footer JamBuddy 2025 - No rights reserved, public domain

